!!!COM:	Bach, Johann Sebastian
!!!OMV:	Oh how fleeting, oh how fading
!!!OTL:	Oh how fleeting, oh how fading
**kern	**fb	**kern	**kern	**kern	**kern
*part5	*part5	*part4	*part3	*part2	*part1
*staff5	*	*staff4	*staff3	*staff2	*staff1
*I"Contrabass	*	*I"Voice	*I"Voice	*I"Voice	*I"Voice
*I'Cb.	*	*I'V	*I'V	*I'V	*I'V
*clefF4	*	*clefF4	*clefGv2	*clefG2	*clefG2
*Trd0c0	*	*	*	*	*
*k[]	*	*k[]	*k[]	*k[]	*k[]
*M4/4	*	*M4/4	*M4/4	*M4/4	*M4/4
=	=	=	=	=	=
4A	.	4A	4c	4e	4a
4G#X	6	4G#X	4B	4e	4b
4A	.	4A	4A	4e	4cc
4AA;	.	4AA;	4A;	4e;	4cc;
=3	=3	=3	=3	=3	=3
4A	.	4A	4A	4e	4cc
4G	.	4Gn	4B	4g	4dd
4c	.	4c	4c	4g	4ee
4C;	.	4C;	4c;	4g;	4ee;
=4	=4	=4	=4	=4	=4
8cL	.	8cL	8cL	4g	4ee
8B	.	8B	8d	.	.
8A	.	8A	8c	[4cc	4ee
8GJ	.	8GJ	8BJ	.	.
8F#XL	6 5	8F#XL	8AL	8cc]	4dd
8G#XJ	6 5	8G#XJ	8B	4b	.
4A	9	4A	8c	.	4cc
.	8	.	8eJ	8a	.
=5	=5	=5	=5	=5	=5
4D	6 5	4D	4fn	4a	4.b
4E	#	4E	8eL	4g#X	.
.	.	.	8dJ	.	8a
2AA;	#	2AA;	2c#X;	2e;	2a;
=6	=6	=6	=6	=6	=6
8AAL	#	8AL	8c#XL	4a	4ee
8BB	.	8B	8d	.	.
8C#X	6	8c#X	8e	4a	4ee
8AAJ	.	8AJ	8c#J	.	.
8DL	.	8dL	4d	4a	4ff
8CnJ	.	8cnJ	.	.	.
8BB-XL	5	8B-XL	4d	4b-X	4ff
8AAJ	.	8AJ	.	.	.
=7	=7	=7	=7	=7	=7
!!linebreak:original
8GGL	6 5 -	8GL	4d	4b-X	4ee
8EEJ	.	8EJ	.	.	.
4AA	#	4A	4c#X	8aL	4ee
.	.	.	.	8gJ	.
4D	4	4D	4d	8gL	4dd
.	.	.	.	8eJ	.
4DD;	#	4D;	4A;	4f#X;	4dd;
=8	=8	=8	=8	=8	=8
8GGL	.	8GL	8BL	4g	4dd
8AA	.	8A	8cn	.	.
8BB	6	8B	8d	4g	4dd
8GGJ	.	8GJ	8BJ	.	.
8CL	.	8cL	4c	4g	4ee
8BB	.	8B	.	.	.
8AA	.	8A	4c	4a	4ee
8GGJ	.	8GJ	.	.	.
=9	=9	=9	=9	=9	=9
8FFL	6 5	8FL	4c	4a	4dd
8DDJ	.	8DJ	.	.	.
4GG	.	4G	4B	8gL	4dd
.	.	.	.	8fJ	.
4C	4	4C	4c	8fL	4cc
.	.	.	.	8dJ	.
4CC;	3	4C;	4G;	4e;	4cc;
=10	=10	=10	=10	=10	=10
4F	.	4F	4A	4f	4cc
8EL	7 4 2	8EL	4A	4f	4dd
8DJ	.	8DJ	.	.	.
8GG#XL	6	8G#XL	4B	4e	4ee
8G#XJ	.	8EJ	.	.	.
4A	4	4A	4A	4e	8ddL
.	3	.	.	.	8ccJ
=11	=11	=11	=11	=11	=11
4D#X	6 5	4D#X	4A	4f#X	4b
4E	#	4E	4G#X	8eL	4b
.	.	.	.	8dnJ	.
2AA;	4	4A	4A	8dL	4a
.	.	.	.	8BJ	.
.	#	4AA;	4E;	4c#X;	4a;
=||	=||	=||	=||	=||	=||
*-	*-	*-	*-	*-	*-
!!!system-decoration: s1,s2,s3,s4,s5
